annanekrasova/img/icons/star-orange.svg

<svg width="58" height="59" viewBox="0 0 58 59" fill="none" xmlns="http://www.w3.org/2000/svg">
<path d="M29.088 0.987549L33.3003 19.6356L49.4651 9.428L39.2575 25.5927L57.9055 29.8051L39.2575 34.0174L49.4651 50.1821L33.3003 39.9745L29.088 58.6226L24.8757 39.9745L8.71096 50.1821L18.9186 34.0174L0.270508 29.8051L18.9186 25.5927L8.71096 9.428L24.8757 19.6356L29.088 0.987549Z" fill="#B12B00"/>
</svg>

<svg width="58" height="59" fill="none" xmlns="http://www.w3.org/2000/svg"><path d="M29.088.988L33.3 19.636 49.465 9.428 39.257 25.593l18.649 4.212-18.648 4.212 10.207 16.165L33.3 39.974l-4.212 18.649-4.212-18.648L8.71 50.181l10.208-16.165L.27 29.805l18.648-4.212L8.71 9.428l16.165 10.208L29.088.988z" fill="#B12B00"/></svg>
